svgs/solid/shekel-sign.svg

<svg xmlns="http://www.w3.org/2000/svg" viewBox="0 0 448 512"><!--! Font Awesome Pro 6.6.0 by @fontawesome - https://fontawesome.com License - https://fontawesome.com/license (Commercial License) Copyright 2024 Fonticons, Inc. --><path d="M32 32C14.3 32 0 46.3 0 64L0 448c0 17.7 14.3 32 32 32s32-14.3 32-32L64 96l128 0c35.3 0 64 28.7 64 64l0 160c0 17.7 14.3 32 32 32s32-14.3 32-32l0-160c0-70.7-57.3-128-128-128L32 32zM320 480c70.7 0 128-57.3 128-128l0-288c0-17.7-14.3-32-32-32s-32 14.3-32 32l0 288c0 35.3-28.7 64-64 64l-128 0 0-224c0-17.7-14.3-32-32-32s-32 14.3-32 32l0 256c0 17.7 14.3 32 32 32l160 0z"/></svg>

<svg xmlns="http://www.w3.org/2000/svg" viewBox="0 0 448 512"><!--! Font Awesome Pro 6.4.2 by @fontawesome - https://fontawesome.com License - https://fontawesome.com/license (Commercial License) Copyright 2023 Fonticons, Inc. --><path d="M32 32C14.3 32 0 46.3 0 64V448c0 17.7 14.3 32 32 32s32-14.3 32-32V96H192c35.3 0 64 28.7 64 64V320c0 17.7 14.3 32 32 32s32-14.3 32-32V160c0-70.7-57.3-128-128-128H32zM320 480c70.7 0 128-57.3 128-128V64c0-17.7-14.3-32-32-32s-32 14.3-32 32V352c0 35.3-28.7 64-64 64H192V192c0-17.7-14.3-32-32-32s-32 14.3-32 32V448c0 17.7 14.3 32 32 32H320z"/></svg>
